src/standard/book.svg

<svg xmlns="http://www.w3.org/2000/svg" viewBox="0 0 36 36">
  <path d="M31 11.38H18.26l-6.82-6.82a.62.62 0 0 0-1.06.44v6.38H5a.62.62 0 0 0-.62.62v19a.62.62 0 0 0 .62.62h26a.62.62 0 0 0 .62-.62V12a.62.62 0 0 0-.62-.62Zm-.62 13H25a.62.62 0 0 0-.62.62v5.38h-5.76V12.62h11.76Zm-.89 1.24-3.87 3.87v-3.87ZM11.62 6.51l5.76 5.75v17.23l-5.76-5.75Zm-6 6.11h4.76V24a.59.59 0 0 0 .18.44l5.93 5.94H5.62Zm20.89 17.76 3.87-3.87v3.87Z"/>
</svg>

<svg id="ab2917c7-141c-40be-b4fd-0f1088eb845e" data-name="Icon" xmlns="http://www.w3.org/2000/svg" viewBox="0 0 36 36">
  <title>Book icon - Black</title>
<desc>read, learn, audiobook, print, paper, document, shelf, library, resource, media and documents</desc>
<metadata><?xpacket begin="﻿" id="W5M0MpCehiHzreSzNTczkc9d"?>
<x:xmpmeta xmlns:x="adobe:ns:meta/" x:xmptk="Adobe XMP Core 8.0-c001 1.000000, 0000/00/00-00:00:00        ">
   <rdf:RDF xmlns:rdf="http://www.w3.org/1999/02/22-rdf-syntax-ns#">
      <rdf:Description rdf:about=""
            xmlns:xmp="http://ns.adobe.com/xap/1.0/"
            xmlns:dc="http://purl.org/dc/elements/1.1/"
            xmlns:cq="http://www.day.com/jcr/cq/1.0"
            xmlns:tiff="http://ns.adobe.com/tiff/1.0/">
         <xmp:rhcc-effective-on>2023-12-08T17:36:45.320Z</xmp:rhcc-effective-on>
         <xmp:rhcc-metadata-complete-moderator>pending</xmp:rhcc-metadata-complete-moderator>
         <xmp:rhcc-translation-id>TRAe6171d07-312e-4066-bcf8-e0749623a44d</xmp:rhcc-translation-id>
         <xmp:brand-content-type>Icon</xmp:brand-content-type>
         <xmp:CreateDate>2023-12-08T17:36:45.320Z</xmp:CreateDate>
         <xmp:rhcc-effective-on-set-on-upload>true</xmp:rhcc-effective-on-set-on-upload>
         <xmp:rhcc-metadata-complete-uploader>pending</xmp:rhcc-metadata-complete-uploader>
         <xmp:rhcc-file-last-modified>2023-12-08T17:38:18.898Z</xmp:rhcc-file-last-modified>
         <xmp:rhcc-audience>rhcc-audience:internal</xmp:rhcc-audience>
         <xmp:rhcc-rights-restricted>no</xmp:rhcc-rights-restricted>
         <xmp:brand-content-subtype>Icon</xmp:brand-content-subtype>
         <xmp:rhcc-derivative-id>DERe6171d07-312e-4066-bcf8-e0749623a44d</xmp:rhcc-derivative-id>
         <xmp:brand-logo-color>Black</xmp:brand-logo-color>
         <xmp:rhcc-notify-portal-subscribers-on-change>yes</xmp:rhcc-notify-portal-subscribers-on-change>
         <dc:format>image/svg+xml</dc:format>
         <dc:modified>2024-02-09T20:19:10.533Z</dc:modified>
         <dc:title>
            <rdf:Alt>
               <rdf:li xml:lang="x-default">Book icon - Black</rdf:li>
            </rdf:Alt>
         </dc:title>
         <dc:description>
            <rdf:Alt>
               <rdf:li xml:lang="x-default">read, learn, audiobook, print, paper, document, shelf, library, resource, media and documents</rdf:li>
            </rdf:Alt>
         </dc:description>
         <cq:lastReplicationAction_scene7>Activate</cq:lastReplicationAction_scene7>
         <cq:lastReplicationAction_publish>Activate</cq:lastReplicationAction_publish>
         <cq:lastReplicated_publish>2024-02-09T21:56:36.941Z</cq:lastReplicated_publish>
         <cq:lastReplicatedBy>workflow-process-service</cq:lastReplicatedBy>
         <cq:lastReplicationAction>Activate</cq:lastReplicationAction>
         <cq:lastReplicatedBy_publish>workflow-process-service</cq:lastReplicatedBy_publish>
         <cq:isDelivered>true</cq:isDelivered>
         <cq:lastReplicated>2024-02-09T21:56:36.941Z</cq:lastReplicated>
         <cq:lastReplicatedBy_scene7>workflow-process-service</cq:lastReplicatedBy_scene7>
         <cq:lastReplicated_scene7>2024-02-09T21:56:36.941Z</cq:lastReplicated_scene7>
         <tiff:ImageLength>36</tiff:ImageLength>
         <tiff:ImageWidth>36</tiff:ImageWidth>
      </rdf:Description>
   </rdf:RDF>
</x:xmpmeta>
                                                                                                    
                                                                                                    
                                                                                                    
                                                                                                    
                                                                                                    
                                                                                                    
                                                                                                    
                                                                                                    
                                                                                                    
                                                                                                    
                                 
<?xpacket end="w"?></metadata>
<path d="M31,11.38H18.26L11.44,4.56A.62.62,0,0,0,10.38,5v6.38H5a.62.62,0,0,0-.62.62V31a.62.62,0,0,0,.62.62H31a.62.62,0,0,0,.62-.62V12A.62.62,0,0,0,31,11.38Zm-.62,13H25a.62.62,0,0,0-.62.62v5.38H18.62V12.62H30.38Zm-.89,1.24-3.87,3.87V25.62ZM11.62,6.51l5.76,5.75V29.49l-5.76-5.75Zm-6,6.11h4.76V24a.59.59,0,0,0,.18.44l5.93,5.94H5.62ZM26.51,30.38l3.87-3.87v3.87Z"/>
</svg>
